!!!COM: Johannes Brahms
!!!CNT: Deutscher
!!!TXO: Deutsche
!!!OTL: In der Gasse
!!!OPS: Op. 58
!!!ONM: No. 6
!!!LYR: Hebbel
!!!ENC: Ayako 
!!!YOR: Edition Peters
!!!ODT: 1871/
!!NB: Vocal melody and text only encoded.
**kern	**silbe
*clefG2	*
*k[b-e-a-]	*
*M3/4	*
*MM[andante]	*
!! tempo indication: Gehend
=6	=6
4r	.
4r	.
{4g	{Ich
=7	=7
4.cc	bli-
8g	-cke
4a-	hin-
=8	=8
4g	-ab
4c	in
4d	die
=9	=9
2.e-	Gas-
=10	=10
2e-}	-se,}
{4a-	{dort
=11	=11
2cc	dru2-
4b-	-ben
=12	=12
4.a-	hat
8b-	sie
4a-	ge-
=13	=13
2g}	-wohnt;}
4r	.
=15	=15 !! May be wrong measure numbers
4r	.
4r	.
{4g	{das
=16	=16
(2g	o2-
4a-)	|
=17	=17
2g	-de,
4g	ver-
=18	=18
4.cc	-las-
8g	-se-
4a-	-ne
=19	=19
2g	Fen-
4d}	-ster,}
=21	=21
4r	.
4r	.
{4f	{wie
=22	=22
2a-	hell
4a-	be-
=23	=23
2a-	-scheint's
4b-	der
=24	=24
2g}	Mond,}
4r	.
=25	=25
4r	.
4r	.
{4g	{wie
=26	=26
[2.cc	hell
=27	=27
2cc]	|
4f	be-
=28	=28
([2.a-	-scheint's
=29	=29
4a-]	|
4g)	|
4f	der
=29	=29
2g}	Mond}
4r	.
=35	=35
4r	.
4r	.
{4d	{Es
=36	=36
2e-	gibt
4e-	so
=37	=37
4f-	viel
4a-	zu
4dd-	be-
=38	=38
2cc	-leuch-
4e-}	-ten,}
=39	=39
4r	.
4r	.
{4g-	{o
=40	=40
2f	hol-
4gn	-de
=41	=41
4a-	Strah-
4dd-	-len
4ff-	des
=42	=42
2ee-}	Lichts,}
4r	.
=43	=43
4r	.
4r	.
{4cc	{was
=44	=44
2cc	webt
4an	ihr
=45	=45
2b-	denn
4g	ge-
=46	=46
(2a-	-spen-
4e-)	|
=47	=47
2f	-stisch
4f	um
=48	=48
2f	je-
4f	-ne
=49	=49
4bn	Sta2t-
4cc	-te
4dd	des
=50	=50
[2ee-	Nichts,
8ee-]}	|}
8r	.
=51	=51
{2.bn	{um
=52	=52
2.cc	je-
=53	=53
2.a-	-ne
=54	=54
2.a-	Sta2t-
=55	=55
2g}	te}
4r	.
=57	=57
{2.Bn	{des
=58	=58
2.c}	Nichts!}
*-	*-
